X:1
T:ZWEI GEISTLICHE CHOERE
T:für vier Männerstimmen
T:Op. 115
T:II Periti autem
T:ZWEI GEISTLICHE CHOERE für vier Männerstimmen Op. 115 IIPeriti autem
T:Felix Mendelssohn Bartholdy
%%score [ 1 2 3 4 ]
L:1/8
Q:1/2=70
M:2/2
K:D
V:1 treble-8 nm="Tenor" snm="T."
V:2 treble-8 nm="Tenor" snm="T."
V:3 bass nm="Bass" snm="B."
V:4 bass nm="Bass" snm="B."
V:1
"^Allegro vivace"!f! A2 | d4 e4 | f4 e2 f2 | g8 | f4 z2 e2 | d2 c>d e2 d2 | c4 z2 A2 | %7
w: Pe-|ri- ti|au- tem ful-|ge-|bunt ut|ful- gor ae- the- re-|us, pe-|
 B2 (A>G) d2 d>d | d4 A2 A2 | B2 A>G d2 d2 | d6 d2 | e4 c2 e2 | f4 d2 c2 | B4 e4 | A4 z4 | %15
w: ri- ti * au- tem ful-|ge- bunt ut|ful- gor ae- the- re-|us, ut|ful- gor, ut|ful- gor ae-|the- re-|us,|
 z2 B2 e4- | e4 A4 | z2 B2 e4 | e2 A2 f4- | f4 d2 A2 | a4 ^g2 f2 | e4 e4 | e4 A3 B | =c2 c2 c2 c2 | %24
w: ut ful-|* gor,|ut ful-|gor, ut ful-|* gor, ut|ful- gor ae-|the- re-|us. Qui que|mul tos red- di|
 =c4 A4 | d8 | B2!p! B2 =c2 d2 | e2 d2 e3 d | d2 B2 =c2 d2 | e2 d2 f3 f | g2 d2 g2 g2 | g4 f4 | %32
w: de- runt|jus-|tos e runt stel-|la- rum si- mi-|les, e- runt stel-|la- rum si- mi-|les, e- runt stel-|la- rum|
 e6 e2 | e4 z2 c2 | d2 e>f g2 f2 | f2 e2 z2 A2 | d2 c>d e2 d2 | d2 c2 z4 | z8 | z4 z2 d2 | %40
w: si- mi-|les, in|om- nem ae- ter- ni-|ta- tem, in|pm- nem ae- ter- ni-|ta- tem,||in|
 f2 e>f B2 B2 | e3 d c2 d2 | (d6 e>d | c6 d>c | B2 c>d e4- | e2 f>e d2 c2 | B4 e4 | e2 d>c) B2 f2 | %48
w: om- nem ae- ter- ni-|ta- * tem, in|om- * *|||||* * * nem, in|
 g2 f>g c2 c2 | f3 e d2 B2 | e4 f4 | g4 d2 d2 | (d6 e>d) | c6 d>c | B2 d2 g2 f2 | (e4 a4- | %56
w: om- nem ae- ter- ni-|ta- * tem, ae-|ter- ni-|ta- tem, in|om- * *|nem ae- *|ter- * * ni-|ta- *|
 a4 g4- | g4) f2 e2 | d2 f2 e2 d2 | e2 d>e A2 A2 | d3 c B2 e2 | e2 A2 f2 e2 | (d4 c4) | %63
w: |* tem, in|om- * nem, in|om- nem ae- ter- ni-|ta- * tem, ae-|ter- * * ni-|ta- *|
 d4 z2!f!"^marcato" A2 | d4 e4 | f4 e2 f2 | g8 | f4 z2 e2 |"^rit." d4 e2 d2 | c4 d2 A2 || %70
w: tem. Pe-|ri- ti|au- tem ful-|ge-|bunt ut|ful- gor, ut|ful- gor ae-|
"^Adagio" f4 e4 | d8 |] %72
w: the- re-|us.|
V:2
!f! A2 | d4 c4 | d4 d2 d2 | d4 e4 | f4 z2 c2 | d2 c>d e2 d2 | c4 z2 A2 | B2 (A>G) d2 d>d | %8
w: Pe-|ri- ti|au- tem ful-|ge- *|bunt ut|ful- gor ae- the- re-|us, pe-|ri- ti * au- tem ful-|
 d4 A2 A2 | B2 A>G d2 d2 | d6 d2 | c4 A2 c2 | d4 A2 A2 | A4 ^G4 | A2 A2 d4- | d4 d4 | z2 A2 d4- | %17
w: ge- bunt ut|ful- gor ae- the- re-|us, ut|ful- gor, ut|ful- gor ae-|the- re-|us, ut ful-|* gor,|ut ful-|
 d8 | z2 A2 d4- | d4 A2 A2 | f4 e2 d2 | d4 d4 | c4 A3 A | =c2 c2 c2 c2 | =c4 A4 | A8 | %26
w: gor,|ut ful-|* gor, ut|ful- gor ae-|the- re-|us. Qui que|mul tos red- di|de- runt|jus-|
 G2!p! G2 A2 B2 | =c2 B2 c3 B | B2 G2 A2 B2 | =c2 B2 c3 c | d2 d2 e2 d2 | c4 d4 | d6 d2 | %33
w: tos e runt stel-|la- rum si- mi-|les, e- runt stel-|la- rum si- mi-|les, e- runt stel-|la- rum|si- mi-|
 c4 z2 A2 | d2 c>d e2 d2 | d2 c2 z2 A2 | d2 A>A G2 F2 | F2 E2 z4 | z8 | z4 z2 d2 | f2 e>f B2 B2 | %41
w: les, in|om- nem ae- ter- ni-|ta- tem, in|pm- nem ae- ter- ni-|ta- tem,||in|om- nem ae- ter- ni-|
 e3 d c2 d2 | (d6 e>d | c6 d>c | B2 c>d e4- | e2 f>e d2 c2 | B4 e4 | e2 d>c) d2 z2 | z8 | %49
w: ta- * tem, in|om- * *|||||* * * nem,||
 z4 z2 d2 | e2 d>e A2 A2 | d3 =c B2 B2 | (B8 | c3 B) A2 A2 | B4 c2 d2 | (c4 f4- | f4 e2 d2 | %57
w: in|om- nem ae- ter- ni-|ta- * tem, in|om-|* * nem ae-|ter- * ni-|ta- *||
 c4) d2 d2 | d2 c>d ^G2 G2 | c3 B A2 A2 | d4 d2 d2 | c4 d2 B2 | A8 | A4 z2!f!"^marcato" A2 | %64
w: * tem, in|om- nem ae- ter- ni-|ta- * tem, in|om- nem ae-|ter- * ni-|ta-|tem. Pe-|
 d4 c4 | =c4 c2 A2 | (d4 e4) | A4 z2 c2 | B8 | A6 A2 || d4 c4 | d8 |] %72
w: ri- ti|au- tem ful-|ge- *|bunt ut|ful-|gor ae-|the- re-|us.|
V:3
!f! A,2 | A,4 A,4 | A,4 G,2 A,2 | B,4 C4 | D4 z2 A,2 | A,2 A,>A, B,2 B,2 | A,4 z4 | z6 B,2 | %8
w: Pe-|ri- ti|au- tem ful-|ge- *|bunt ut|ful- gor ae- the- re-|us,|pe-|
 A,2 F,2 A,2 G,>F, | B,4 B,2 B,2 | A,2 F,>G, A,2 F,2 | E,4 z2 A,2 | A,4 F,2 E,2 | D,4 E,4 | %14
w: ri- ti au- tem ful-|ge- bunt ut|ful- gor ae- the- re-|us, ut|ful- gor ae-|the- re-|
 F,4 z2 A,2 | B,2 ^G,>A, B,2 G,2 | C4 A,4 | B,2 ^G,>A, B,2 G,2 | C4 z2 A,2 | D4 D,4 | A,4 A,2 A,2 | %21
w: us, ut|ful- gor ae- the- re-|us, ut|ful- gor ae- the- re-|us, ut|ful- gor,|ful- gor ae-|
 ^G,4 G,4 | A,4 A,3 B, | =C2 C2 C2 C2 | =C4 A,4 | F,8 | G,2 z2!p! G,4 | G,4 G,4 | G,4 G,4 | %29
w: the- re-|us. Qui que|mul tos red- di|de- runt|jus-|tos e-|runt stel-|la- rum|
 G,4 A,4 | B,2 B,2 B,2 B,2 | G,4 A,4 | B,6 B,2 | A,2 E,2 A,4- | A,4 A,4 | z2 A,2 A,2 A,2 | A,8 | %37
w: si- mi-|les, e- runt stel-|la- rum|si- mi-|les, in om-|* nem|ae- ter- ni-|ta-|
 A,4 z2 A,2 | B,2 A,>B, E,2 E,2 | (A,3 G,) F,2 F,>E, | D,4 B,2 z2 | z4 z2 A,2 | B,2 A,>B, E,2 E,2 | %43
w: tem, in|om- nem ae- ter- ni-|ta- * tem, in *|om- nem,|in|om- nem ae- ter- ni-|
 A,3 G, F,2 F,2 | (B,6 C>B, | ^A,4 B,2 A,2 | B,6 C>B, | ^A,4 B,2) B,2 | (B,2 D2 C2) B,2 | %49
w: ta- * tem, in|om- * *|||* nem ae-|ter- * * ni-|
 ^A,4 B,2 B,2 | =C6 C2 | B,3 A, G,2 G,2 | B,2 A,>B, E,2 E,2 | A,3 G, F,2 F,2 | G,6 A,2 | %55
w: ta- tem, ae-|ter- ni-|ta- * tem, in|om- nem ae- ter- ni-|ta- * tem, ae-|ter- ni-|
 A,2 A,,2 z2 A,2 | B,2 A,>B, E,2 E,2 | A,4 D,2 E,2 | F,4 B,4 | z2 E,2 A,2 A,2 | A,4 B,2 B,2 | %61
w: ta- tem, in|om- nem ae- ter- ni-|ta- tem, in|om- nem|ae- ter- ni-|ta- tem, ae-|
 A,6 G,2 | (F,4 E,4) | F,4 z2!f!"^marcato" A,2 | A,4 A,4 | A,4 D,2 =C2 | (B,4 C4) | D4 z2 A,2 | %68
w: ter- ni-|ta- *|tem. Pe-|ri- ti|au- tem ful-|ge- *|bunt ut|
 (A,4 G,4- | G,4) F,2 A,2 || A,6 G,2 | F,8 |] %72
w: ful- *|* gor ae-|the- re-|us.|
V:4
!f! A,2 | F,4 A,4 | D,4 D,2 D,2 | D,8 | D,4 z2 E,2 | F,2 F,>F, ^G,2 G,2 | A,4 z4 | z6 G,2 | %8
w: Pe-|ri- ti|au- tem ful-|ge-|bunt ut|ful- gor ae- the- re-|us,|pe-|
 F,2 D,2 F,2 E,>D, | G,4 G,2 G,2 | F,2 D,>E, F,2 D,2 | A,,4 z2 A,,2 | D,4 F,2 E,2 | D,4 E,4 | %14
w: ri- ti au- tem ful-|ge- bunt ut|ful- gor ae- the- re-|us, ut|ful- gor ae-|the- re-|
 F,4 z2 F,2 | ^G,2 E,>F, G,2 E,2 | A,4 F,4 | ^G,2 E,>F, G,2 E,2 | A,4 z2 A,2 | D4 D,4 | D,8 | %21
w: us, ut|ful- gor ae- the- re-|us, ut|ful- gor ae- the- re-|us, ut|ful- gor,|ae-|
 E,4 E,4 | A,,4 A,3 B, | =C2 C2 C2 C2 | =C4 A,4 | F,8 | G,2 z2!p! G,4 | G,4 G,4 | G,4 G,4 | %29
w: the- re-|us. Qui que|mul tos red- di|de- runt|jus-|tos e-|runt stel-|la- rum|
 G,4 G,4 | G,2 G,2 E,2 E,2 | E,4 F,4 | G,4 ^G,4 | A,2 z2 z2 G,2 | F,2 E,>D, C,2 D,2 | %35
w: si- mi-|les, e- runt stel-|la- rum|si- mi-|les, in|om- nem ae- ter- ni-|
 D,2 A,,2 z2 G,2 | F,2 E,>D, C,2 D,2 | D,2 A,,2 z2 A,2 | B,2 A,>B, E,2 E,2 | (A,3 G,) F,2 F,>E, | %40
w: ta- tem, in|pm- nem ae- ter- ni-|ta- tem, in|om- nem ae- ter- ni-|ta- * tem, in *|
 D,4 B,2 A,2 | ^G,2 E,2 A,2 F,2 | G,4 G,4- | G,2 (F,E, D,4) | G,6 z2 | z4 z2 F,2 | %46
w: om- nem, in|om- * nem ae-|ter- ni-|* ta- * *|tem,|in|
 G,2 F,>G, C,2 C,2 | F,3 E, D,2 D,2 | E,8 | F,4 G,4 | G,8 | G,,6 G,2 | B,2 A,>B, E,2 E,2 | %53
w: om- nem ae- ter- ni-|ta- * tem, in|om-|nem, in|om-|nem in|om- nem ae- ter- ni-|
 A,3 G, F,2 F,2 | (G,2 F,2) (E,2 D,2) | A,,8- | A,,8- | A,,8- | A,,8 | A,,6 G,2 | F,4 G,2 E,2 | %61
w: ta- * tem, ae-|ter- * ni- *|ta-||||tem, in|om- nem ae-|
 A,2 G,2 F,2 G,2 | A,,8 | D,4 z2!f!"^marcato" A,2 | F,4 A,4 | D,4 D,2 D,2 | D,8 | D,4 z2 A,2 | %68
w: ter- * * ni-|ta-|tem. Pe-|ri- ti|au- tem ful-|ge-|bunt ut|
 (B,,4 E,4 | A,,4) D,2 F,2 || A,4 A,,4 | D,8 |] %72
w: ful- *|* gor ae-|the- re-|us.|

